X:1
T:Grogan's Jig
R:jig
D:Catherine McEvoy
H:Catherine learned the tune from Pasty Hanley. Source was Dermot Grogan
N:melodic code 1734 1753
Z:Paul Stewart Cranford (P.S.C.), <http://www.cranfordpub.com>
L:1/8
Q:244
M:6/8
K:Eaeo
z|e3 dBA|~G3 AGE|ege dBA|BAB GED|
e2 e dBA|GFG AGE|(e/f/g)e dBA|Bee e2:|
|:B|e2 b ebb|ebb baf|dfa dfa|dfa agf|
gfg aga|bag fga|bge dBA|Bee e2:|
